icons/svg/text-edit-style.svg

<svg width="24" height="24" viewBox="0 0 24 24" fill="none" xmlns="http://www.w3.org/2000/svg">
<path d="M3.25 14.2502L5.125 9.84661M5.125 9.84661H11.875M5.125 9.84661L7.99802 3.09902C8.19602 2.63398 8.80398 2.63398 9.00198 3.09902L11.875 9.84661M11.875 9.84661L12.4495 11.1958" stroke="currentColor" stroke-width="1.5" stroke-linecap="round" stroke-linejoin="round"/>
<path d="M13.3359 20.6859C13.7974 20.5805 14.2198 20.3471 14.5546 20.0126L20.0094 14.5629C20.9965 13.5768 20.9969 11.9771 20.0104 10.9904C19.0241 10.0039 17.4248 10.0038 16.4384 10.9902L10.9864 16.4422C10.6509 16.7777 10.4171 17.2012 10.3118 17.6638L9.77586 20.0184C9.61119 20.7418 10.2588 21.3889 10.9822 21.2237L13.3359 20.6859Z" stroke="currentColor" stroke-width="1.5" stroke-linecap="round" stroke-linejoin="round"/>
</svg>

<svg xmlns="http://www.w3.org/2000/svg" width="24" height="24" fill="none" viewBox="0 0 24 24"><path stroke="currentColor" stroke-linecap="round" stroke-linejoin="round" stroke-width="1.5" d="m3.25 14.25 1.875-4.403m0 0h6.75m-6.75 0 2.873-6.748a.536.536 0 0 1 1.004 0l2.873 6.748m0 0 .575 1.349m.886 9.49a2.5 2.5 0 0 0 1.219-.673l5.454-5.45a2.526 2.526 0 1 0-3.57-3.573l-5.453 5.452c-.335.336-.569.76-.674 1.222l-.536 2.354a1.007 1.007 0 0 0 1.206 1.206z"/></svg>
